X:1
T:Whistle and I'll come to you. Dix.42
T:Whistle and I'll come to you. Dix.42
T:Burns
C:Burns
L:1/8
Q:1/4=70
M:6/8
K:C
V:1 treble 
V:1
 (c/d/) | ecA G>FE | Ddd d2 (c/d/) | ecA G>EG | Acc c2 (c/d/) | ecA G>FE | Dfe{e} d2 (g/f/) | %7
w: O- whist-|le and I'- ll come to|you my lad O- whist- le|and I'- ll come to you|my lad Tho'- * * *|fath- er and moth- er and|a' should go mad O- whist-|
 ecA G>EG | Acc c2 || (e/d/) | ceg ceg | ceg gf (e/d/) | ceg ceg | cc'a !fermata!g2 g/f/ | %14
w: le and I'- ll come to|you my lad. *|C- ome|down the back stairs when you|come to court m- e; C- ome|down the back stairs and let|no- bod- y see, a- nd|
 ecA G>FE | Ddd d2 g/f/ | ecA GEG"^bar line adde" | Acc c2 || %18
w: come as you w- ere na'|com- ing to me A- nd|come as you w- ere na'|com- ing to me.|

